public/static/brand/logo_full.svg

<svg height="128" viewBox="0 0 360 128" width="360" xmlns="http://www.w3.org/2000/svg" xmlns:xlink="http://www.w3.org/1999/xlink"><linearGradient id="a" x1="100%" x2="50%" y1="5.663%" y2="50%"><stop offset="0" stop-color="#007b55"/><stop offset="1" stop-color="#00ab55"/></linearGradient><linearGradient id="b" x1="50%" x2="50%" y1="0%" y2="100%"><stop offset="0" stop-color="#5be584"/><stop offset="1" stop-color="#00ab55"/></linearGradient><g fill="none" fill-rule="evenodd"><g transform="translate(3.5 32)"><path d="m23.201647 20.7766255c11.072211 5.7222379 11.5769845 5.9836488 11.6001673 5.9949956.0030619.002182.1605302.0833547 11.1981857 5.7881361-6.5178768 12.13488-10.6732912 19.3164806-12.467118 21.5448017-2.6896467 3.3424817-5.6238067 5.8732365-9.232456 7.333472-7.5864745 3.5654884-17.0175155 3.7321979-24.300426-.6760026z" fill="url(#a)"/><g fill="url(#b)"><path d="m107.577623 25.4315232c-11.5676985-20.2389818-23.5250947-39.3071098-37.2608683-11.3359339-1.8790566 3.5958494-3.2486415 10.5841502-6.3167547 10.5841502v-.035507c-3.0681132 0-4.4372642-6.9883008-6.3163208-10.5841502-13.7362075-27.9711759-25.6936037-8.90304789-37.2613018 11.3359339-.8705283 1.526362-1.7067736 2.9830252-2.4223774 4.2490026 26.5094528-16.7816534 24.2775849 33.9166234 46 34.3194742v.035507c21.7228491-.4028509 19.4905472-51.1011277 46-34.3199126-.71517-1.2655391-1.551415-2.7222022-2.422377-4.2485642"/><path d="m109 64c6.6272 0 12-5.3728 12-12s-5.3728-12-12-12-12 5.3728-12 12 5.3728 12 12 12"/></g></g><path d="m146.031279 45.2145749c3.521619 0 6.071757-2.388664 6.071757-5.6275304s-2.550138-5.5870445-6.071757-5.5870445c-3.440663 0-6.031279 2.3481781-6.031279 5.5870445s2.590616 5.6275304 6.031279 5.6275304zm0 48.6234818c3.319227 0 5.343146-1.9838057 5.343146-5.8704454v-31.9838056c0-3.8866397-2.023919-5.9109312-5.302668-5.9109312-3.319227 0-5.343146 2.0242915-5.343146 5.9109312v31.9838056c0 3.8461539 2.023919 5.8704454 5.302668 5.8704454zm49.059797 0c3.400184 0 5.302668-2.0647773 5.302668-5.8299595v-23.3603239c0-9.4331984-5.181233-14.8582996-14.329347-14.8582996-6.314627 0-11.131554 3.1578947-12.791168 8.2591093h-.526219v-2.631579c-.121435-3.4412955-1.983441-5.3441295-5.181233-5.3441295-3.23827 0-5.262189 2.1862348-5.262189 5.708502v32.1862348c0 3.7651822 1.942962 5.8704454 5.343146 5.8704454s5.343146-2.1052632 5.343146-5.8704454v-18.4210526c0-6.6801619 3.481141-10.7692308 9.026679-10.7692308 4.938363 0 7.731371 3.1578948 7.731371 8.7854251v20.4048583c0 3.7651822 1.902484 5.8704454 5.343146 5.8704454zm21.210672-48.6234818c3.521619 0 6.071757-2.388664 6.071757-5.6275304s-2.550138-5.5870445-6.071757-5.5870445c-3.440662 0-6.031279 2.3481781-6.031279 5.5870445s2.590617 5.6275304 6.031279 5.6275304zm0 48.6234818c3.319227 0 5.343146-1.9838057 5.343146-5.8704454v-31.9838056c0-3.8866397-2.023919-5.9109312-5.302668-5.9109312-3.319227 0-5.343146 2.0242915-5.343146 5.9109312v31.9838056c0 3.8461539 2.023919 5.8704454 5.302668 5.8704454zm72.699172 0c3.400184 0 5.343146-2.0647773 5.343146-5.8704454v-24.5344129c0-8.5020243-5.181233-13.6437247-13.843606-13.6437247-6.193192 0-11.050598 3.1174089-12.912604 8.097166h-.48574c-1.416743-5.0202429-5.788409-8.097166-11.819687-8.097166-5.828887 0-10.321987 2.9959514-11.738731 7.8137652h-.526219v-2.0242915c-.161913-3.4412956-2.064397-5.5060729-5.181232-5.5060729-3.238271 0-5.26219 2.1862348-5.26219 5.7489878v32.145749c0 3.8056681 1.942962 5.8704454 5.343146 5.8704454s5.343147-2.0647773 5.343147-5.8704454v-20.7692307c0-5.2226721 3.035878-8.582996 7.569457-8.582996 4.614535 0 7.4885 3.1174089 7.4885 8.2186235v21.1336032c0 3.8056681 1.821527 5.8704454 5.140755 5.8704454 3.359705 0 5.181232-2.0647773 5.181232-5.8704454v-20.7287449c0-5.1821862 3.116836-8.6234818 7.690893-8.6234818 4.614535 0 7.367065 2.9149798 7.367065 8.0161943v21.3360324c0 3.8056681 1.902484 5.8704454 5.302668 5.8704454zm27.565777.1619433c5.26219 0 9.51242-2.1862348 11.698252-6.0323887h.526219v1.4979757c.323827 2.7935223 2.185833 4.3724697 5.01932 4.3724697 3.319227 0 5.181232-2.0647773 5.181232-5.708502v-23.4817814c0-9.5141701-6.314627-14.8582996-17.567617-14.8582996-4.695492 0-8.298068.8097166-11.01012 2.2267206-3.764489 1.902834-5.505059 4.4534413-5.505059 6.9635628 0 2.1862348 1.457221 3.7651822 3.804967 3.7651822 1.740571 0 2.873965-.4453442 4.088317-1.4170041 2.388224-2.145749 4.695492-3.3603239 7.933763-3.3603239 4.897884 0 7.609935 2.2672065 7.609935 6.5991903v3.5222672h-10.200552c-9.75529 0-15.624655 4.8987855-15.624655 12.8340081 0 7.8137652 5.666973 13.0769231 14.045998 13.0769231zm3.562098-7.6923077c-4.169273 0-7.00276-2.4696356-7.00276-6.0323887 0-3.5222672 2.590616-5.6275303 6.962281-5.6275303h8.25759v4.4534413c0 4.048583-3.602576 7.2064777-8.217111 7.2064777zm34.528059 7.5303644c3.278749 0 5.343146-1.9838057 5.343146-5.8704454v-47.125506c0-3.8866397-2.064397-5.9109312-5.343146-5.9109312-3.319228 0-5.343147 2.0242915-5.343147 5.9109312v47.125506c0 3.8866397 2.023919 5.8704454 5.343147 5.8704454z" fill="#212b36" fill-rule="nonzero"/></g></svg>

<svg xmlns="http://www.w3.org/2000/svg" width="360" height="128" viewBox="0 0 360 128">
  <defs>
    <linearGradient id="base-a" x1="100%" x2="50%" y1="5.663%" y2="50%">
      <stop offset="0%" stop-color="#007B55"/>
      <stop offset="100%" stop-color="#00AB55"/>
    </linearGradient>
    <linearGradient id="base-b" x1="50%" x2="50%" y1="0%" y2="100%">
      <stop offset="0%" stop-color="#5BE584"/>
      <stop offset="100%" stop-color="#00AB55"/>
    </linearGradient>
    <linearGradient id="base-c" x1="50%" x2="50%" y1="0%" y2="100%">
      <stop offset="0%" stop-color="#5BE584"/>
      <stop offset="100%" stop-color="#00AB55"/>
    </linearGradient>
  </defs>
  <g fill="none" fill-rule="evenodd">
    <g transform="translate(3.5 32)">
      <path fill="url(#base-a)" d="M23.201647,20.7766255 C34.273858,26.4988634 34.7786315,26.7602743 34.8018143,26.7716211 C34.8048762,26.7738031 34.9623445,26.8549758 46,32.5597572 C39.4821232,44.6946372 35.3267088,51.8762378 33.532882,54.1045589 C30.8432353,57.4470406 27.9090753,59.9777954 24.300426,61.4380309 C16.7139515,65.0035193 7.2829105,65.1702288 0,60.7620283 L23.201647,20.7766255 Z"/>
      <path fill="url(#base-b)" d="M107.577623,25.4315232 C96.0099245,5.1925414 84.0525283,-13.8755866 70.3167547,14.0955893 C68.4376981,17.6914387 67.0681132,24.6797395 64,24.6797395 L64,24.6442325 C60.9318868,24.6442325 59.5627358,17.6559317 57.6836792,14.0600823 C43.9474717,-13.9110936 31.9900755,5.15703441 20.4223774,25.3960162 C19.5518491,26.9223782 18.7156038,28.3790414 18,29.6450188 C44.5094528,12.8633654 42.2775849,63.5616422 64,63.964493 L64,64 C85.7228491,63.5971491 83.4905472,12.8988723 110,29.6800874 C109.28483,28.4145483 108.448585,26.9578852 107.577623,25.4315232"/>
      <path fill="url(#base-c)" d="M109,64 C115.6272,64 121,58.6272 121,52 C121,45.3728 115.6272,40 109,40 C102.3728,40 97,45.3728 97,52 C97,58.6272 102.3728,64 109,64"/>
    </g>
    <path fill="#212B36" fill-rule="nonzero" d="M146.031279,45.2145749 C149.552898,45.2145749 152.103036,42.8259109 152.103036,39.5870445 C152.103036,36.3481781 149.552898,34 146.031279,34 C142.590616,34 140,36.3481781 140,39.5870445 C140,42.8259109 142.590616,45.2145749 146.031279,45.2145749 Z M146.031279,93.8380567 C149.350506,93.8380567 151.374425,91.854251 151.374425,87.9676113 L151.374425,55.9838057 C151.374425,52.097166 149.350506,50.0728745 146.071757,50.0728745 C142.75253,50.0728745 140.728611,52.097166 140.728611,55.9838057 L140.728611,87.9676113 C140.728611,91.8137652 142.75253,93.8380567 146.031279,93.8380567 Z M195.091076,93.8380567 C198.49126,93.8380567 200.393744,91.7732794 200.393744,88.0080972 L200.393744,64.6477733 C200.393744,55.2145749 195.212511,49.7894737 186.064397,49.7894737 C179.74977,49.7894737 174.932843,52.9473684 173.273229,58.048583 L172.74701,58.048583 L172.74701,55.417004 C172.625575,51.9757085 170.763569,50.0728745 167.565777,50.0728745 C164.327507,50.0728745 162.303588,52.2591093 162.303588,55.7813765 L162.303588,87.9676113 C162.303588,91.7327935 164.24655,93.8380567 167.646734,93.8380567 C171.046918,93.8380567 172.98988,91.7327935 172.98988,87.9676113 L172.98988,69.5465587 C172.98988,62.8663968 176.471021,58.7773279 182.016559,58.7773279 C186.954922,58.7773279 189.74793,61.9352227 189.74793,67.562753 L189.74793,87.9676113 C189.74793,91.7327935 191.650414,93.8380567 195.091076,93.8380567 Z M216.301748,45.2145749 C219.823367,45.2145749 222.373505,42.8259109 222.373505,39.5870445 C222.373505,36.3481781 219.823367,34 216.301748,34 C212.861086,34 210.270469,36.3481781 210.270469,39.5870445 C210.270469,42.8259109 212.861086,45.2145749 216.301748,45.2145749 Z M216.301748,93.8380567 C219.620975,93.8380567 221.644894,91.854251 221.644894,87.9676113 L221.644894,55.9838057 C221.644894,52.097166 219.620975,50.0728745 216.342226,50.0728745 C213.022999,50.0728745 210.99908,52.097166 210.99908,55.9838057 L210.99908,87.9676113 C210.99908,91.8137652 213.022999,93.8380567 216.301748,93.8380567 Z M289.00092,93.8380567 C292.401104,93.8380567 294.344066,91.7732794 294.344066,87.9676113 L294.344066,63.4331984 C294.344066,54.9311741 289.162833,49.7894737 280.50046,49.7894737 C274.307268,49.7894737 269.449862,52.9068826 267.587856,57.8866397 L267.102116,57.8866397 C265.685373,52.8663968 261.313707,49.7894737 255.282429,49.7894737 C249.453542,49.7894737 244.960442,52.7854251 243.543698,57.6032389 L243.017479,57.6032389 L243.017479,55.5789474 C242.855566,52.1376518 240.953082,50.0728745 237.836247,50.0728745 C234.597976,50.0728745 232.574057,52.2591093 232.574057,55.8218623 L232.574057,87.9676113 C232.574057,91.7732794 234.517019,93.8380567 237.917203,93.8380567 C241.317387,93.8380567 243.26035,91.7732794 243.26035,87.9676113 L243.26035,67.1983806 C243.26035,61.9757085 246.296228,58.6153846 250.829807,58.6153846 C255.444342,58.6153846 258.318307,61.7327935 258.318307,66.8340081 L258.318307,87.9676113 C258.318307,91.7732794 260.139834,93.8380567 263.459062,93.8380567 C266.818767,93.8380567 268.640294,91.7732794 268.640294,87.9676113 L268.640294,67.2388664 C268.640294,62.0566802 271.75713,58.6153846 276.331187,58.6153846 C280.945722,58.6153846 283.698252,61.5303644 283.698252,66.6315789 L283.698252,87.9676113 C283.698252,91.7732794 285.600736,93.8380567 289.00092,93.8380567 Z M316.566697,94 C321.828887,94 326.079117,91.8137652 328.264949,87.9676113 L328.791168,87.9676113 L328.791168,89.465587 C329.114995,92.2591093 330.977001,93.8380567 333.810488,93.8380567 C337.129715,93.8380567 338.99172,91.7732794 338.99172,88.1295547 L338.99172,64.6477733 C338.99172,55.1336032 332.677093,49.7894737 321.424103,49.7894737 C316.728611,49.7894737 313.126035,50.5991903 310.413983,52.0161943 C306.649494,53.9190283 304.908924,56.4696356 304.908924,58.9797571 C304.908924,61.1659919 306.366145,62.7449393 308.713891,62.7449393 C310.454462,62.7449393 311.587856,62.2995951 312.802208,61.3279352 C315.190432,59.1821862 317.4977,57.9676113 320.735971,57.9676113 C325.633855,57.9676113 328.345906,60.2348178 328.345906,64.5668016 L328.345906,68.0890688 L318.145354,68.0890688 C308.390064,68.0890688 302.520699,72.9878543 302.520699,80.9230769 C302.520699,88.7368421 308.187672,94 316.566697,94 Z M320.128795,86.3076923 C315.959522,86.3076923 313.126035,83.8380567 313.126035,80.2753036 C313.126035,76.7530364 315.716651,74.6477733 320.088316,74.6477733 L328.345906,74.6477733 L328.345906,79.1012146 C328.345906,83.1497976 324.74333,86.3076923 320.128795,86.3076923 Z M354.656854,93.8380567 C357.935603,93.8380567 360,91.854251 360,87.9676113 L360,40.8421053 C360,36.9554656 357.935603,34.9311741 354.656854,34.9311741 C351.337626,34.9311741 349.313707,36.9554656 349.313707,40.8421053 L349.313707,87.9676113 C349.313707,91.854251 351.337626,93.8380567 354.656854,93.8380567 Z"/>
  </g>
</svg>
